src/assets/img/unsorted/security.svg

<svg xmlns:xlink="http://www.w3.org/1999/xlink" height="20.15" width="20.95" xmlns="http://www.w3.org/2000/svg"><use height="20.15" width="20.95" xlink:href="#a"/><defs><linearGradient gradientTransform="matrix(.0064 0 0 .0123 5.2 -.05)" gradientUnits="userSpaceOnUse" id="b" spreadMethod="pad" x1="-819.2" x2="819.2"><stop offset="0" stop-color="#ffc2ea"/><stop offset="1" stop-color="#fff"/></linearGradient><linearGradient gradientTransform="matrix(0 -.0018 .005 0 -.45 -3.2)" gradientUnits="userSpaceOnUse" id="c" spreadMethod="pad" x1="-819.2" x2="819.2"><stop offset="0" stop-color="#6b1449"/><stop offset="1" stop-color="#af2076"/></linearGradient><linearGradient gradientTransform="matrix(0 -.0024 .0043 0 28.5 2.4)" gradientUnits="userSpaceOnUse" id="d" spreadMethod="pad" x1="-819.2" x2="819.2"><stop offset="0" stop-color="#6b1449"/><stop offset="1" stop-color="#af2076"/></linearGradient><g id="a" fill-rule="evenodd"><path d="M-10.5-6.5 0-10.1v20.15Q-3.65 7-5.9 3.85-8.4.25-10.5-6.5" fill="#fff" transform="translate(10.5 10.1)"/><path d="m0-10.1 10.45 3.6q-2 6.75-4.6 10.35Q3.9 6.8 0 10.05V-10.1" fill="url(#b)" transform="translate(10.5 10.1)"/><path d="M.1-7.05q2.95 0 2.95 2.8v5.4h-1.2v-5.3q0-1.8-1.75-1.8-1.95 0-1.95 1.8V.6h-1.2v-4.75q0-1.1.95-2 .95-.9 2.2-.9" fill="url(#c)" transform="translate(10.5 10.1)"/><path d="M0 2.3q1.3 0 1.3-1.35T0-.4Q-1.35-.4-1.35.95T0 2.3m4.1 1.75h-8.35v-6.3H4.1v6.3" fill="url(#d)" transform="translate(10.5 10.1)"/></g></defs></svg>

<?xml version="1.0" encoding="UTF-8" standalone="no"?>
<svg xmlns:xlink="http://www.w3.org/1999/xlink" height="20.15px" width="20.95px" xmlns="http://www.w3.org/2000/svg">
  <g transform="matrix(1.0, 0.0, 0.0, 1.0, 10.5, 10.1)">
    <use height="20.15" transform="matrix(1.0, 0.0, 0.0, 1.0, -10.5, -10.1)" width="20.95" xlink:href="#shape0"/>
  </g>
  <defs>
    <g id="shape0" transform="matrix(1.0, 0.0, 0.0, 1.0, 10.5, 10.1)">
      <path d="M-10.5 -6.5 L0.0 -10.1 0.0 10.05 Q-3.65 7.0 -5.9 3.85 -8.4 0.25 -10.5 -6.5" fill="#ffffff" fill-rule="evenodd" stroke="none"/>
      <path d="M0.0 -10.1 L10.45 -6.5 Q8.45 0.25 5.85 3.85 3.9 6.8 0.0 10.05 L0.0 -10.1" fill="url(#gradient0)" fill-rule="evenodd" stroke="none"/>
      <path d="M0.1 -7.05 Q3.05 -7.05 3.05 -4.25 L3.05 1.15 1.85 1.15 1.85 -4.15 Q1.85 -5.95 0.1 -5.95 -1.85 -5.95 -1.85 -4.15 L-1.85 0.6 -3.05 0.6 -3.05 -4.15 Q-3.05 -5.25 -2.1 -6.15 -1.15 -7.05 0.1 -7.05" fill="url(#gradient1)" fill-rule="evenodd" stroke="none"/>
      <path d="M0.0 2.3 Q1.3 2.3 1.3 0.95 1.3 -0.4 0.0 -0.4 -1.35 -0.4 -1.35 0.95 -1.35 2.3 0.0 2.3 M4.1 4.05 L-4.25 4.05 -4.25 -2.25 4.1 -2.25 4.1 4.05" fill="url(#gradient2)" fill-rule="evenodd" stroke="none"/>
    </g>
    <linearGradient gradientTransform="matrix(0.0064, 0.0, 0.0, 0.0123, 5.2, -0.05)" gradientUnits="userSpaceOnUse" id="gradient0" spreadMethod="pad" x1="-819.2" x2="819.2">
      <stop offset="0.0" stop-color="#ffc2ea"/>
      <stop offset="1.0" stop-color="#ffffff"/>
    </linearGradient>
    <linearGradient gradientTransform="matrix(0.0, -0.0018, 0.005, 0.0, -0.45, -3.2)" gradientUnits="userSpaceOnUse" id="gradient1" spreadMethod="pad" x1="-819.2" x2="819.2">
      <stop offset="0.0" stop-color="#6b1449"/>
      <stop offset="1.0" stop-color="#af2076"/>
    </linearGradient>
    <linearGradient gradientTransform="matrix(0.0, -0.0024, 0.0043, 0.0, 28.5, 2.4)" gradientUnits="userSpaceOnUse" id="gradient2" spreadMethod="pad" x1="-819.2" x2="819.2">
      <stop offset="0.0" stop-color="#6b1449"/>
      <stop offset="1.0" stop-color="#af2076"/>
    </linearGradient>
  </defs>
</svg>
